icons/2_Variations/Kwansei Gakuin University fg.var.svg

<svg width="1024" height="1024" viewBox="0 0 1024 1024" fill="none" xmlns="http://www.w3.org/2000/svg">
<g clip-path="url(#clip0_3_143)">
<path d="M512 1024C794.77 1024 1024 794.77 1024 512C1024 229.23 794.77 0 512 0C229.23 0 0 229.23 0 512C0 794.77 229.23 1024 512 1024Z" fill="#F9DE81"/>
<path d="M728.54 329.799C702.71 285.889 666.54 251.029 623.94 225.199C616.184 220.134 607.968 215.811 599.4 212.289C604.56 220.039 609.73 226.499 613.6 234.289C689.79 367.289 643.3 537.759 510.29 613.949C425.07 662.999 320.47 662.999 234 613.899C226.25 610.029 219.79 604.899 212 599.689C215.87 607.439 219.75 615.189 224.91 624.229C306.27 762.409 484.47 808.889 623.91 728.829C763.35 648.769 808.61 469.269 728.54 329.799ZM404.41 744.319C341.13 727.529 286.9 688.789 249.41 635.849C395.33 704.289 569.67 641.009 638.11 495.089C645.612 479.897 651.25 463.854 654.9 447.309C672.98 380.159 666.52 310.429 636.82 247.149C762.08 336.249 791.82 509.299 703.97 634.559C635.56 731.409 516.76 773.999 404.41 744.319ZM629.11 686.209C630.58 687.802 632.329 689.114 634.27 690.079V691.369L633 692.669L617.49 702.999L614.91 701.709L611 695.249C596.95 678.639 572.81 674.729 553.54 685.899L573.54 717.209C574.555 719.513 576.396 721.354 578.7 722.369L579.99 723.659L578.74 724.999L563.24 732.749H560.66V731.459C560.66 728.879 559.37 727.589 558.08 724.999C555.5 721.129 510.3 648.809 509.01 647.519L503.84 643.649V642.359L520.63 631.999H521.92V634.579L523.21 638.449L544.51 671.759C544.72 671.659 544.95 671.589 545.17 671.489V669.489H546.46L546.73 670.029C547.78 662.029 551.63 632.449 551.63 626.879V616.479L550.34 615.189V613.899L572.34 597.109H573.63V599.689C572.34 602.269 572.34 604.859 572.34 607.439C572.34 613.139 567.34 654.989 566.14 664.759C572.426 663.59 578.806 663.001 585.2 662.999C602 664.259 617.49 673.299 629.11 686.209ZM656.23 657.799C660.1 662.969 657.52 669.419 652.36 673.299C647.2 677.179 640.74 674.589 636.86 669.429C632.98 664.269 635.57 657.809 640.73 653.929C643.352 652.627 646.352 652.302 649.192 653.011C652.033 653.72 654.527 655.418 656.23 657.799ZM733.71 542.869C728.55 546.739 722.09 544.159 718.21 538.999C714.33 533.839 716.92 527.379 722.08 523.499C724.702 522.197 727.702 521.872 730.542 522.581C733.383 523.29 735.877 524.988 737.58 527.369C741.46 532.539 738.87 538.999 733.71 542.869ZM726 568.699L727.29 569.989C724.71 575.159 723.42 580.319 722.13 585.489C719.635 593.787 715.49 601.496 709.943 608.153C704.396 614.81 697.562 620.278 689.85 624.229C671.77 633.229 648.53 630.689 631.74 617.769C618.83 607.439 611.08 593.229 609.74 577.769C608.45 559.689 616.2 542.899 629.11 531.279C631.861 529.821 634.112 527.57 635.57 524.819L636.86 522.239H638.15L654.94 535.149L653.65 536.439C645.9 539.019 640.74 544.189 635.57 549.349C622.66 566.139 625.24 590.669 642.03 603.589C658.82 617.789 684.64 613.919 697.56 597.129C701.43 593.259 705.31 588.129 706.56 582.919C706.56 581.629 707.85 577.759 705.27 575.169C702.69 572.579 688.48 562.259 688.48 562.259H685.9L671.7 580.339L669.12 584.209L667.83 585.499H666.54L654.92 576.499L653.63 575.209L654.92 573.919L658.79 572.629L683.34 538.999H684.63L724.63 568.699H726Z" fill="#56595B"/>
</g>
<defs>
<clipPath id="clip0_3_143">
<rect width="1024" height="1024" fill="white"/>
</clipPath>
</defs>
</svg>

<svg xmlns="http://www.w3.org/2000/svg" viewBox="0 0 1024 1024">
   <circle cx="512" cy="512" r="512" style="fill:#ffce00"/>
   <path d="M728.54 329.8c-25.83-43.91-62-78.77-104.6-104.6a147.27 147.27 0 0 0-24.54-12.91c5.16 7.75 10.33 14.21 14.2 22 76.19 133 29.7 303.47-103.31 379.66C425.07 663 320.47 663 234 613.9c-7.75-3.87-14.21-9-22-14.21 3.87 7.75 7.75 15.5 12.91 24.54 81.36 138.18 259.56 184.66 399 104.6s184.7-259.56 104.63-399.03ZM404.41 744.32c-63.28-16.79-117.51-55.53-155-108.47 145.92 68.44 320.26 5.16 388.7-140.76a210.15 210.15 0 0 0 16.79-47.78c18.08-67.15 11.62-136.88-18.08-200.16 125.26 89.1 155 262.15 67.15 387.41C635.56 731.41 516.76 774 404.41 744.32Zm224.7-58.11a17.81 17.81 0 0 0 5.16 3.87v1.29l-1.27 1.3L617.49 703l-2.58-1.29-3.91-6.46c-14.05-16.61-38.19-20.52-57.46-9.35l20 31.31a10.08 10.08 0 0 0 5.16 5.16l1.29 1.29-1.25 1.34-15.5 7.75h-2.58v-1.29c0-2.58-1.29-3.87-2.58-6.46-2.58-3.87-47.78-76.19-49.07-77.48l-5.17-3.87v-1.29L520.63 632h1.29v2.58l1.29 3.87 21.3 33.31c.21-.1.44-.17.66-.27v-2h1.29l.27.54c1.05-8 4.9-37.58 4.9-43.15v-10.4l-1.29-1.29v-1.29l22-16.79h1.29v2.58c-1.29 2.58-1.29 5.17-1.29 7.75 0 5.7-5 47.55-6.2 57.32A104.4 104.4 0 0 1 585.2 663c16.8 1.26 32.29 10.3 43.91 23.21Zm27.12-28.41c3.87 5.17 1.29 11.62-3.87 15.5s-11.62 1.29-15.5-3.87-1.29-11.62 3.87-15.5a12.32 12.32 0 0 1 15.5 3.87Zm77.48-114.93c-5.16 3.87-11.62 1.29-15.5-3.87s-1.29-11.62 3.87-15.5a12.32 12.32 0 0 1 15.5 3.87c3.88 5.17 1.29 11.63-3.87 15.5ZM726 568.7l1.29 1.29c-2.58 5.17-3.87 10.33-5.16 15.5a64.34 64.34 0 0 1-32.28 38.74c-18.08 9-41.32 6.46-58.11-6.46-12.91-10.33-20.66-24.54-22-40-1.29-18.08 6.46-34.87 19.37-46.49a15.56 15.56 0 0 0 6.46-6.46l1.29-2.58h1.29l16.79 12.91-1.29 1.29c-7.75 2.58-12.91 7.75-18.08 12.91-12.91 16.79-10.33 41.32 6.46 54.24 16.79 14.2 42.61 10.33 55.53-6.46 3.87-3.87 7.75-9 9-14.21 0-1.29 1.29-5.16-1.29-7.75s-16.79-12.91-16.79-12.91h-2.58l-14.2 18.08-2.58 3.87-1.29 1.29h-1.29l-11.62-9-1.29-1.29 1.29-1.29 3.87-1.29L683.34 539h1.29l40 29.7Z"/>
</svg>
